16x16/apps/xmlcopyeditor.svg

<svg height="16" width="16" xmlns="http://www.w3.org/2000/svg"><path d="m10.912 10.497-3.025 2.067v3.436h7.313c.443 0 .8-.357.8-.8v-2.5l-.06-.028z" fill="#c4bea2"/><path d="m2.833 10.764-.073.15-2.76 1.199v3.087c0 .443.357.8.8.8h7.2v-3.3z" fill="#b0ab84"/><path d="m16 1.765-5.293 5.02-.137 4.06 5.43 1.854z" fill="#e9e6dd"/><path d="m0 2.585v9.527l3.582-1.316-.048-.022 2.666-4.923z" fill="#d6d2c0"/><path d="m6.942 0-.08 5.276 3.612 2.248 5.526-5.679v-1.045c0-.443-.357-.8-.8-.8z" fill="#3d65c8"/><path d="m.8 0c-.443 0-.8.357-.8.8v1.865l5.253 3.493 1.747-.626v-5.532z" fill="#dd5639"/><path d="m5 6 2-1 4 2v4l-3 2-5-2z" fill="#f4f4f7"/></svg>

<svg height="16" width="16" xmlns="http://www.w3.org/2000/svg">
    <path d="m10.912 10.497-3.025 2.067V16H15.2c.443 0 .8-.357.8-.8v-2.5l-.06-.028z" fill="#c4bea2"/>
    <path d="m2.833 10.764-.073.15L0 12.113V15.2c0 .443.357.8.8.8H8v-3.3z" fill="#b0ab84"/>
    <path d="m16 1.765-5.293 5.02-.137 4.06L16 12.699z" fill="#e9e6dd"/>
    <path d="M0 2.585v9.527l3.582-1.316-.048-.022L6.2 5.851z" fill="#d6d2c0"/>
    <path d="m6.942 0-.08 5.276 3.612 2.248L16 1.845V.8c0-.443-.357-.8-.8-.8z" fill="#3d65c8"/>
    <path d="M.8 0C.357 0 0 .357 0 .8v1.865l5.253 3.493L7 5.532V0z" fill="#dd5639"/>
    <path d="m5 6 2-1 4 2v4l-3 2-5-2z" fill="#f4f4f7"/>
</svg>
